Gruvbox-Plus-Dark/actions/16/image-filter.svg

<svg xmlns="http://www.w3.org/2000/svg" width="16" height="16" viewBox="0 0 16 16">
 <defs>
  <style id="current-color-scheme" type="text/css">
   .ColorScheme-Text { color:#ebdbb2; } .ColorScheme-Highlight { color:#458588; }
  </style>
 </defs>
 <path style="fill:currentColor" class="ColorScheme-Text" d="M 1 1 L 1 15 L 1.390625 15 A 0.50009 0.50009 0 0 0 1.6191406 15 L 15 15 L 15 13 L 3 13 L 3 11.388672 C 3.12 11.156142 3.2395581 10.923138 3.3925781 10.705078 C 4.2091181 9.5414781 5.5389719 8.5588281 8.0761719 8.0488281 C 10.750072 7.5112681 12.289194 6.5649406 13.121094 5.3691406 C 13.953024 4.1733406 14.031912 2.8102656 14.013672 1.5722656 A 0.50005 0.50005 0 0 0 13.5 1.0742188 A 0.50005 0.50005 0 0 0 13.013672 1.5878906 C 13.031072 2.7696906 12.943668 3.8720281 12.298828 4.7988281 C 11.654018 5.7256581 10.405606 6.5604594 7.8789062 7.0683594 C 5.5249063 7.5415994 3.9946 8.4605437 3 9.5898438 L 3 1 L 1 1 z"/>
 <path style="fill:currentColor;opacity:0.3" class="ColorScheme-Text" d="M 14 2.4003906 C 13.9566 3.3996306 13.771204 4.4346406 13.121094 5.3691406 C 12.289174 6.5649406 10.750072 7.5112281 8.0761719 8.0488281 C 5.5389719 8.5588881 4.2091781 9.5414781 3.3925781 10.705078 C 3.2395581 10.923138 3.12 11.156142 3 11.388672 L 3 13 L 14 13 L 14 2.4003906 z"/>
</svg>

<svg width="16" height="16" version="1.1" viewBox="0 0 16 16" xmlns="http://www.w3.org/2000/svg">
  <defs>
    <style type="text/css">.ColorScheme-Text { color:#ebdbb2; } .ColorScheme-Highlight { color:#458588; }</style>
  </defs>
  <path class="ColorScheme-Text" d="m1 1v14h14v-2h-12v-1.611c0.12-0.2325 0.2396-0.4655 0.3926-0.6836 0.8165-1.164 2.146-2.146 4.684-2.656 2.674-0.5376 4.213-1.484 5.045-2.68 0.8319-1.196 0.9108-2.559 0.8926-3.797-0.001021-0.2808-0.233-0.5057-0.5137-0.498-0.2762 0.00748-0.494 0.2375-0.4863 0.5137 0.0174 1.182-0.07 2.284-0.7148 3.211-0.6448 0.9268-1.893 1.762-4.42 2.27-2.354 0.4732-3.884 1.392-4.879 2.521v-8.59z" fill="currentColor"/>
  <path class="ColorScheme-Text" d="m14 2.4c-0.0434 0.9992-0.2288 2.034-0.8789 2.969-0.8319 1.196-2.371 2.142-5.045 2.68-2.537 0.5101-3.867 1.493-4.684 2.656-0.153 0.2181-0.2726 0.4511-0.3926 0.6836v1.611h11v-10.6z" fill="currentColor" opacity=".3"/>
</svg>
